images/portal/4319.svg

<?xml version="1.0" standalone="no"?><!DOCTYPE svg PUBLIC "-//W3C//DTD SVG 1.1//EN" "http://www.w3.org/Graphics/SVG/1.1/DTD/svg11.dtd"><svg xmlns:xlink="http://www.w3.org/1999/xlink" version="1.1" class="highcharts-root" style="font-family:arial;font-size:9pt;" xmlns="http://www.w3.org/2000/svg" width="485" height="415"><desc>Created with Highstock 5.0.14</desc><defs><clipPath id="highcharts-xvrm6bm-7"><rect x="0" y="0" width="432" height="235" fill="none"></rect></clipPath><clipPath id="highcharts-xvrm6bm-8"><rect x="0" y="0" width="432" height="235" fill="none"></rect></clipPath></defs><rect fill="#fbfbfb" class="highcharts-background" x="0" y="0" width="485" height="415" rx="0" ry="0"></rect><rect fill="none" class="highcharts-plot-background" x="43" y="109" width="432" height="235"></rect><g class="highcharts-label" style="cursor:pointer;" transform="translate(10,451)"><text x="0" y="0"><tspan>&gt; Indikator-Details</tspan></text></g><g class="highcharts-pane-group"></g><g class="highcharts-grid highcharts-xaxis-grid "><path fill="none" class="highcharts-grid-line" d="M 104.5 109 L 104.5 344" opacity="1"></path><path fill="none" class="highcharts-grid-line" d="M 165.5 109 L 165.5 344" opacity="1"></path><path fill="none" class="highcharts-grid-line" d="M 227.5 109 L 227.5 344" opacity="1"></path><path fill="none" class="highcharts-grid-line" d="M 289.5 109 L 289.5 344" opacity="1"></path><path fill="none" class="highcharts-grid-line" d="M 351.5 109 L 351.5 344" opacity="1"></path><path fill="none" class="highcharts-grid-line" d="M 412.5 109 L 412.5 344" opacity="1"></path><path fill="none" class="highcharts-grid-line" d="M 474.5 109 L 474.5 344" opacity="1"></path><path fill="none" class="highcharts-grid-line" d="M 42.5 109 L 42.5 344" opacity="1"></path></g><g class="highcharts-grid highcharts-yaxis-grid "><path fill="none" stroke="#e6e6e6" stroke-width="1" class="highcharts-grid-line" d="M 43 344.5 L 475 344.5" opacity="1"></path><path fill="none" stroke="#e6e6e6" stroke-width="1" class="highcharts-grid-line" d="M 43 285.5 L 475 285.5" opacity="1"></path><path fill="none" stroke="#e6e6e6" stroke-width="1" class="highcharts-grid-line" d="M 43 227.5 L 475 227.5" opacity="1"></path><path fill="none" stroke="#e6e6e6" stroke-width="1" class="highcharts-grid-line" d="M 43 168.5 L 475 168.5" opacity="1"></path><path fill="none" stroke="#e6e6e6" stroke-width="1" class="highcharts-grid-line" d="M 43 108.5 L 475 108.5" opacity="1"></path></g><g class="highcharts-grid highcharts-yaxis-grid "></g><rect fill="none" class="highcharts-plot-border" x="43" y="109" width="432" height="235"></rect><g class="highcharts-axis highcharts-xaxis "><path fill="none" class="highcharts-axis-line" stroke="#ccd6eb" stroke-width="1" d="M 43 344.5 L 475 344.5"></path></g><g class="highcharts-axis highcharts-yaxis "><path fill="none" class="highcharts-axis-line" d="M 43 109 L 43 344"></path></g><g class="highcharts-axis highcharts-yaxis "><path fill="none" class="highcharts-axis-line" d="M 475 109 L 475 344"></path></g><g class="highcharts-series-group"><g class="highcharts-series highcharts-series-0 highcharts-line-series highcharts-color-undefined " transform="translate(43,109) scale(1 1)" clip-path="url(#highcharts-xvrm6bm-8)"><path fill="none" d="M 30.857142857143 176.25 L 92.571428571429 180.95 L 154.28571428571 186.825 L 216 185.0625 L 277.71428571429 186.825 L 339.42857142857 193.28750000000002 L 401.14285714286 192.7" class="highcharts-graph" stroke="#FF8028" stroke-width="2" stroke-linejoin="round" stroke-linecap="round"></path></g><g class="highcharts-markers highcharts-series-0 highcharts-line-series highcharts-color-undefined " transform="translate(43,109) scale(1 1)" clip-path="none"></g><g class="highcharts-series highcharts-series-1 highcharts-line-series highcharts-color-undefined " transform="translate(43,109) scale(1 1)" clip-path="url(#highcharts-xvrm6bm-8)"><path fill="none" d="M 30.857142857143 176.25 L 92.571428571429 173.3125 L 154.28571428571 179.1875 L 216 172.1375 L 277.71428571429 169.78750000000002 L 339.42857142857 170.96249999999998 L 401.14285714286 170.375" class="highcharts-graph" stroke="#DC440E" stroke-width="2" stroke-linejoin="round" stroke-linecap="round"></path></g><g class="highcharts-markers highcharts-series-1 highcharts-line-series highcharts-color-undefined " transform="translate(43,109) scale(1 1)" clip-path="none"></g><g class="highcharts-series highcharts-series-2 highcharts-line-series highcharts-color-undefined " transform="translate(43,109) scale(1 1)" clip-path="url(#highcharts-xvrm6bm-8)"><path fill="none" d="M 30.857142857143 176.25 L 92.571428571429 158.03750000000002 L 154.28571428571 136.3 L 277.71428571429 138.0625" class="highcharts-graph" stroke="#B00000" stroke-width="2" stroke-linejoin="round" stroke-linecap="round"></path></g><g class="highcharts-markers highcharts-series-2 highcharts-line-series highcharts-color-undefined " transform="translate(43,109) scale(1 1)" clip-path="none"></g><g class="highcharts-series highcharts-series-3 highcharts-line-series highcharts-color-undefined " transform="translate(43,109) scale(1 1)" clip-path="url(#highcharts-xvrm6bm-8)"><path fill="none" d="M 30.857142857143 176.25 L 92.571428571429 160.97500000000002 L 154.28571428571 151.575 L 216 145.1125 L 277.71428571429 143.9375 L 339.42857142857 123.375 L 401.14285714286 126.89999999999996" class="highcharts-graph" stroke="#661200" stroke-width="2" stroke-linejoin="round" stroke-linecap="round"></path></g><g class="highcharts-markers highcharts-series-3 highcharts-line-series highcharts-color-undefined " transform="translate(43,109) scale(1 1)" clip-path="none"></g><g class="highcharts-series highcharts-series-4 highcharts-line-series highcharts-color-undefined " transform="translate(43,109) scale(1 1)" clip-path="url(#highcharts-xvrm6bm-8)"><path fill="none" d="M 30.857142857143 176.25 L 92.571428571429 158.03750000000002 L 154.28571428571 158.03750000000002 L 216 153.33749999999998 L 277.71428571429 89.88749999999999 L 339.42857142857 68.14999999999998 L 401.14285714286 41.71249999999998" class="highcharts-graph" stroke="#D3E2E4" stroke-width="2" stroke-linejoin="round" stroke-linecap="round"></path></g><g class="highcharts-markers highcharts-series-4 highcharts-line-series highcharts-color-undefined " transform="translate(43,109) scale(1 1)" clip-path="none"></g><g class="highcharts-series highcharts-series-5 highcharts-line-series highcharts-color-undefined " transform="translate(43,109) scale(1 1)" clip-path="url(#highcharts-xvrm6bm-8)"><path fill="none" d="M 216 176.25 L 277.71428571429 135.125 L 339.42857142857 158.625 L 401.14285714286 161.5625" class="highcharts-graph" stroke="#A8C3CA" stroke-width="2" stroke-linejoin="round" stroke-linecap="round"></path></g><g class="highcharts-markers highcharts-series-5 highcharts-line-series highcharts-color-undefined " transform="translate(43,109) scale(1 1)" clip-path="none"></g></g><text x="10" text-anchor="start" class="highcharts-title" style="color:#000000;font-size:1.1em;font-weight:bold;fill:#000000;" y="20"><tspan>Verkehrsleistungsindex</tspan></text><text x="10" text-anchor="start" class="highcharts-subtitle" style="color:#000000;font-size:0.9em;fill:#000000;" y="38"><tspan>Indexwert (Basis 2010 = 100)</tspan></text><g class="highcharts-legend" transform="translate(10,40)"><rect fill="none" class="highcharts-legend-box" rx="0" ry="0" x="0" y="0" width="442" height="57" visibility="visible"></rect><g><g><g class="highcharts-legend-item highcharts-line-series highcharts-color-undefined highcharts-series-0" transform="translate(12,7)"><path fill="none" d="M 0 11 L 16 11" class="highcharts-graph" stroke="#FF8028" stroke-width="2"></path><text x="21" style="color:#333333;font-size:1em;font-weight:normal;cursor:pointer;fill:#333333;" text-anchor="start" y="15"><tspan>BS: MIV Stadtstrassennetz</tspan></text></g><g class="highcharts-legend-item highcharts-line-series highcharts-color-undefined highcharts-series-1" transform="translate(196.296875,7)"><path fill="none" d="M 0 11 L 16 11" class="highcharts-graph" stroke="#DC440E" stroke-width="2"></path><text x="21" y="15" style="color:#333333;font-size:1em;font-weight:normal;cursor:pointer;fill:#333333;" text-anchor="start"><tspan>BS: MIV Total</tspan></text></g><g class="highcharts-legend-item highcharts-line-series highcharts-color-undefined highcharts-series-2" transform="translate(311.25,7)"><path fill="none" d="M 0 11 L 16 11" class="highcharts-graph" stroke="#B00000" stroke-width="2"></path><text x="21" y="15" style="color:#333333;font-size:1em;font-weight:normal;cursor:pointer;fill:#333333;" text-anchor="start"><tspan>BS: ÖV</tspan></text></g><g class="highcharts-legend-item highcharts-line-series highcharts-color-undefined highcharts-series-3" transform="translate(12,26)"><path fill="none" d="M 0 11 L 16 11" class="highcharts-graph" stroke="#661200" stroke-width="2"></path><text x="21" y="15" style="color:#333333;font-size:1em;font-weight:normal;cursor:pointer;fill:#333333;" text-anchor="start"><tspan>BS: ÖV BVB/BLT</tspan></text></g><g class="highcharts-legend-item highcharts-line-series highcharts-color-undefined highcharts-series-4" transform="translate(145.640625,26)"><path fill="none" d="M 0 11 L 16 11" class="highcharts-graph" stroke="#D3E2E4" stroke-width="2"></path><text x="21" y="15" style="color:#333333;font-size:1em;font-weight:normal;cursor:pointer;fill:#333333;" text-anchor="start"><tspan>BS: Velo (wetterbereinigt)</tspan></text></g><g class="highcharts-legend-item highcharts-line-series highcharts-color-undefined highcharts-series-5" transform="translate(323.21875,26)"><path fill="none" d="M 0 11 L 16 11" class="highcharts-graph" stroke="#A8C3CA" stroke-width="2"></path><text x="21" y="15" style="color:#333333;font-size:1em;font-weight:normal;cursor:pointer;fill:#333333;" text-anchor="start"><tspan>BS: Fussgänger</tspan></text></g></g></g></g><g class="highcharts-axis-labels highcharts-xaxis-labels "><text x="73.85714285714286" style="color:#000000;cursor:default;font-size:0.9em;fill:#000000;" text-anchor="middle" transform="translate(0,0)" y="363" opacity="1">2010</text><text x="135.57142857142858" style="color:#000000;cursor:default;font-size:0.9em;fill:#000000;" text-anchor="middle" transform="translate(0,0)" y="363" opacity="1">2011</text><text x="197.28571428571428" style="color:#000000;cursor:default;font-size:0.9em;fill:#000000;" text-anchor="middle" transform="translate(0,0)" y="363" opacity="1">2012</text><text x="259.00000000000006" style="color:#000000;cursor:default;font-size:0.9em;fill:#000000;" text-anchor="middle" transform="translate(0,0)" y="363" opacity="1">2013</text><text x="320.7142857142857" style="color:#000000;cursor:default;font-size:0.9em;fill:#000000;" text-anchor="middle" transform="translate(0,0)" y="363" opacity="1">2014</text><text x="382.42857142857144" style="color:#000000;cursor:default;font-size:0.9em;fill:#000000;" text-anchor="middle" transform="translate(0,0)" y="363" opacity="1">2015</text><text x="444.14285714285717" style="color:#000000;cursor:default;font-size:0.9em;fill:#000000;" text-anchor="middle" transform="translate(0,0)" y="363" opacity="1">2016</text></g><g class="highcharts-axis-labels highcharts-yaxis-labels "><text x="28" style="color:#000000;cursor:default;font-size:0.9em;fill:#000000;" text-anchor="end" transform="translate(0,0)" y="349" opacity="1"><tspan>90</tspan></text><text x="28" style="color:#000000;cursor:default;font-size:0.9em;fill:#000000;" text-anchor="end" transform="translate(0,0)" y="290" opacity="1"><tspan>100</tspan></text><text x="28" style="color:#000000;cursor:default;font-size:0.9em;fill:#000000;" text-anchor="end" transform="translate(0,0)" y="231" opacity="1"><tspan>110</tspan></text><text x="28" style="color:#000000;cursor:default;font-size:0.9em;fill:#000000;" text-anchor="end" transform="translate(0,0)" y="172" opacity="1"><tspan>120</tspan></text><text x="28" style="color:#000000;cursor:default;font-size:0.9em;fill:#000000;" text-anchor="end" transform="translate(0,0)" y="114" opacity="1"><tspan>130</tspan></text></g><g class="highcharts-axis-labels highcharts-yaxis-labels "></g><text x="10" class="highcharts-credits" text-anchor="start" style="cursor:default;color:#000000;font-size:0.8em;fill:#000000;" y="400"><tspan>Quelle: Amt für Mobilität Basel-Stadt</tspan></text></svg>

<svg class="highcharts-root" xmlns="http://www.w3.org/2000/svg" viewBox="0 0 485 415" font-family="arial" font-size="12">
    <defs>
        <clipPath id="a">
            <path fill="none" d="M0 0h432v235H0z"/>
        </clipPath>
    </defs>
    <rect fill="#fbfbfb" class="highcharts-background" width="485" height="415" rx="0" ry="0"/>
    <path fill="none" class="highcharts-plot-background" d="M43 109h432v235H43z"/>
    <text transform="translate(10 451)" class="highcharts-label" cursor="pointer">
        <tspan>&gt; Indikator-Details</tspan>
    </text>
    <g class="highcharts-grid highcharts-xaxis-grid">
        <path fill="none" class="highcharts-grid-line" d="M104.5 109v235m61-235v235m62-235v235m62-235v235m62-235v235m61-235v235m62-235v235m-432-235v235"/>
    </g>
    <g class="highcharts-grid highcharts-yaxis-grid">
        <path fill="none" stroke="#e6e6e6" class="highcharts-grid-line" d="M43 344.5h432m-432-59h432m-432-58h432m-432-59h432m-432-60h432"/>
    </g>
    <path fill="none" class="highcharts-plot-border" d="M43 109h432v235H43z"/>
    <g class="highcharts-axis highcharts-xaxis">
        <path fill="none" class="highcharts-axis-line" stroke="#ccd6eb" d="M43 344.5h432"/>
    </g>
    <g class="highcharts-axis highcharts-yaxis">
        <path fill="none" class="highcharts-axis-line" d="M43 109v235"/>
    </g>
    <g class="highcharts-axis highcharts-yaxis">
        <path fill="none" class="highcharts-axis-line" d="M475 109v235"/>
    </g>
    <g class="highcharts-series-group">
        <g class="highcharts-series highcharts-series-0 highcharts-line-series highcharts-color-undefined" transform="translate(43 109)" clip-path="url(#a)">
            <path fill="none" d="M30.857 176.25l61.714 4.7 61.715 5.875L216 185.063l61.714 1.762 61.715 6.463 61.714-.588" class="highcharts-graph" stroke="#FF8028" stroke-width="2" stroke-linejoin="round" stroke-linecap="round"/>
        </g>
        <g class="highcharts-series highcharts-series-1 highcharts-line-series highcharts-color-undefined" transform="translate(43 109)" clip-path="url(#a)">
            <path fill="none" d="M30.857 176.25l61.714-2.938 61.715 5.875 61.714-7.05 61.714-2.35 61.715 1.175 61.714-.587" class="highcharts-graph" stroke="#DC440E" stroke-width="2" stroke-linejoin="round" stroke-linecap="round"/>
        </g>
        <g class="highcharts-series highcharts-series-2 highcharts-line-series highcharts-color-undefined" transform="translate(43 109)" clip-path="url(#a)">
            <path fill="none" d="M30.857 176.25l61.714-18.212 61.715-21.738 123.428 1.762" class="highcharts-graph" stroke="#B00000" stroke-width="2" stroke-linejoin="round" stroke-linecap="round"/>
        </g>
        <g class="highcharts-series highcharts-series-3 highcharts-line-series highcharts-color-undefined" transform="translate(43 109)" clip-path="url(#a)">
            <path fill="none" d="M30.857 176.25l61.714-15.275 61.715-9.4L216 145.113l61.714-1.175 61.715-20.563 61.714 3.525" class="highcharts-graph" stroke="#661200" stroke-width="2" stroke-linejoin="round" stroke-linecap="round"/>
        </g>
        <g class="highcharts-series highcharts-series-4 highcharts-line-series highcharts-color-undefined" transform="translate(43 109)" clip-path="url(#a)">
            <path fill="none" d="M30.857 176.25l61.714-18.212h61.715l61.714-4.7 61.714-63.45L339.43 68.15l61.714-26.438" class="highcharts-graph" stroke="#D3E2E4" stroke-width="2" stroke-linejoin="round" stroke-linecap="round"/>
        </g>
        <g class="highcharts-series highcharts-series-5 highcharts-line-series highcharts-color-undefined" transform="translate(43 109)" clip-path="url(#a)">
            <path fill="none" d="M216 176.25l61.714-41.125 61.715 23.5 61.714 2.938" class="highcharts-graph" stroke="#A8C3CA" stroke-width="2" stroke-linejoin="round" stroke-linecap="round"/>
        </g>
    </g>
    <text x="10" class="highcharts-title" y="20" color="#000" font-size="1.1em" font-weight="700">
        <tspan>Verkehrsleistungsindex</tspan>
    </text>
    <text x="10" class="highcharts-subtitle" y="38" color="#000" font-size=".9em">
        <tspan>Indexwert (Basis 2010 = 100)</tspan>
    </text>
    <g class="highcharts-legend" transform="translate(10 40)">
        <rect fill="none" class="highcharts-legend-box" rx="0" ry="0" width="442" height="57"/>
        <g class="highcharts-legend-item highcharts-line-series highcharts-color-undefined highcharts-series-0">
            <path fill="none" d="M12 18h16" class="highcharts-graph" stroke="#FF8028" stroke-width="2"/>
            <text x="21" y="15" color="#333" font-size="1em" font-weight="400" cursor="pointer" fill="#333" transform="translate(12 7)">
                <tspan>BS: MIV Stadtstrassennetz</tspan>
            </text>
        </g>
        <g class="highcharts-legend-item highcharts-line-series highcharts-color-undefined highcharts-series-1">
            <path fill="none" d="M196.297 18h16" class="highcharts-graph" stroke="#DC440E" stroke-width="2"/>
            <text x="21" y="15" color="#333" font-size="1em" font-weight="400" cursor="pointer" fill="#333" transform="translate(196.297 7)">
                <tspan>BS: MIV Total</tspan>
            </text>
        </g>
        <g class="highcharts-legend-item highcharts-line-series highcharts-color-undefined highcharts-series-2">
            <path fill="none" d="M311.25 18h16" class="highcharts-graph" stroke="#B00000" stroke-width="2"/>
            <text x="21" y="15" color="#333" font-size="1em" font-weight="400" cursor="pointer" fill="#333" transform="translate(311.25 7)">
                <tspan>BS: ÖV</tspan>
            </text>
        </g>
        <g class="highcharts-legend-item highcharts-line-series highcharts-color-undefined highcharts-series-3">
            <path fill="none" d="M12 37h16" class="highcharts-graph" stroke="#661200" stroke-width="2"/>
            <text x="21" y="15" color="#333" font-size="1em" font-weight="400" cursor="pointer" fill="#333" transform="translate(12 26)">
                <tspan>BS: ÖV BVB/BLT</tspan>
            </text>
        </g>
        <g class="highcharts-legend-item highcharts-line-series highcharts-color-undefined highcharts-series-4">
            <path fill="none" d="M145.64 37h16" class="highcharts-graph" stroke="#D3E2E4" stroke-width="2"/>
            <text x="21" y="15" color="#333" font-size="1em" font-weight="400" cursor="pointer" fill="#333" transform="translate(145.64 26)">
                <tspan>BS: Velo (wetterbereinigt)</tspan>
            </text>
        </g>
        <g class="highcharts-legend-item highcharts-line-series highcharts-color-undefined highcharts-series-5">
            <path fill="none" d="M323.219 37h16" class="highcharts-graph" stroke="#A8C3CA" stroke-width="2"/>
            <text x="21" y="15" color="#333" font-size="1em" font-weight="400" cursor="pointer" fill="#333" transform="translate(323.219 26)">
                <tspan>BS: Fussgänger</tspan>
            </text>
        </g>
    </g>
    <g class="highcharts-axis-labels highcharts-xaxis-labels" text-anchor="middle" color="#000" cursor="default" font-size=".9em">
        <text x="73.857" y="363">
            2010
        </text>
        <text x="135.571" y="363">
            2011
        </text>
        <text x="197.286" y="363">
            2012
        </text>
        <text x="259" y="363">
            2013
        </text>
        <text x="320.714" y="363">
            2014
        </text>
        <text x="382.429" y="363">
            2015
        </text>
        <text x="444.143" y="363">
            2016
        </text>
    </g>
    <g class="highcharts-axis-labels highcharts-yaxis-labels" text-anchor="end" color="#000" cursor="default" font-size=".9em">
        <text x="28" y="349">
            <tspan>90</tspan>
        </text>
        <text x="28" y="290">
            <tspan>100</tspan>
        </text>
        <text x="28" y="231">
            <tspan>110</tspan>
        </text>
        <text x="28" y="172">
            <tspan>120</tspan>
        </text>
        <text x="28" y="114">
            <tspan>130</tspan>
        </text>
    </g>
    <text x="10" class="highcharts-credits" y="400" cursor="default" color="#000" font-size=".8em">
        <tspan>Quelle: Amt für Mobilität Basel-Stadt</tspan>
    </text>
</svg>
